src/pos-icons/cup-outline.svg

<svg height="24" viewBox="0 0 24 24" width="24" xmlns="http://www.w3.org/2000/svg"><path d="m3 2 2 18.23c.13 1 .97 1.77 2 1.77h10c1 0 1.87-.77 2-1.77l2-18.23zm2.22 2h13.56l-1.78 16h-10z"/></svg>

<?xml version="1.0" encoding="UTF-8"?><!DOCTYPE svg PUBLIC "-//W3C//DTD SVG 1.1//EN" "http://www.w3.org/Graphics/SVG/1.1/DTD/svg11.dtd"><svg xmlns="http://www.w3.org/2000/svg" xmlns:xlink="http://www.w3.org/1999/xlink" version="1.1" id="mdi-cup-outline" width="24" height="24" viewBox="0 0 24 24"><path d="M3 2L5 20.23C5.13 21.23 5.97 22 7 22H17C18 22 18.87 21.23 19 20.23L21 2H3M5.22 4H18.78L17 20H7L5.22 4Z" /></svg>
